app/assets/images/caseflow-monitor-logo.svg

<?xml version="1.0" encoding="UTF-8" standalone="no"?>
<!-- Generator: Adobe Illustrator 20.0.0, SVG Export Plug-In . SVG Version: 6.00 Build 0)  -->

<svg
   xmlns:dc="http://purl.org/dc/elements/1.1/"
   xmlns:cc="http://creativecommons.org/ns#"
   xmlns:rdf="http://www.w3.org/1999/02/22-rdf-syntax-ns#"
   xmlns:svg="http://www.w3.org/2000/svg"
   xmlns="http://www.w3.org/2000/svg"
   xmlns:sodipodi="http://sodipodi.sourceforge.net/DTD/sodipodi-0.dtd"
   xmlns:inkscape="http://www.inkscape.org/namespaces/inkscape"
   version="1.1"
   id="Layer_1"
   x="0px"
   y="0px"
   viewBox="0 0 500 500"
   style="enable-background:new 0 0 500 500;"
   xml:space="preserve"
   inkscape:version="0.91 r13725"
   sodipodi:docname="caseflow-monitor-logo.svg"><metadata
     id="metadata4241"><rdf:RDF><cc:Work
         rdf:about=""><dc:format>image/svg+xml</dc:format><dc:type
           rdf:resource="http://purl.org/dc/dcmitype/StillImage" /></cc:Work></rdf:RDF></metadata><defs
     id="defs4239" /><sodipodi:namedview
     pagecolor="#ffffff"
     bordercolor="#666666"
     borderopacity="1"
     objecttolerance="10"
     gridtolerance="10"
     guidetolerance="10"
     inkscape:pageopacity="0"
     inkscape:pageshadow="2"
     inkscape:window-width="3840"
     inkscape:window-height="2091"
     id="namedview4237"
     showgrid="false"
     inkscape:zoom="1.916"
     inkscape:cx="294.54672"
     inkscape:cy="171.64163"
     inkscape:window-x="0"
     inkscape:window-y="27"
     inkscape:window-maximized="1"
     inkscape:current-layer="Layer_1" /><style
     type="text/css"
     id="style4227">
	.st0{fill:#489FD8;}
	.st1{fill:#D6D7D8;}
	.st2{fill:#4691BE;}
</style><path
     style="fill:#d84898;fill-opacity:1"
     inkscape:connector-curvature="0"
     id="path4231"
     d="m 209.3,407.5 -29.3,11.4 22.1,50 c 8.5,19.2 26.9,31.1 47.9,31.1 21,0 39.4,-11.9 47.9,-31.1 L 320,419 290.7,407.7 269.2,456.2 c -3.5,7.8 -10.6,12.5 -19.1,12.5 -8.5,0 -15.7,-4.7 -19.1,-12.5 l -21.7,-48.7 m 169.5,-104.2 -33.8,15 c -11.9,5.3 -21.4,14.7 -26.7,26.7 l -15,33.9 29.3,11.3 14.4,-32.5 c 2.1,-4.8 5.9,-8.6 10.7,-10.7 l 32.4,-14.3 -11.3,-29.4 m -257.7,0 -11.3,29.3 32.4,14.4 c 4.8,2.1 8.6,5.9 10.7,10.7 l 14.4,32.5 29.3,-11.3 -15,-33.9 c -5.3,-11.9 -14.8,-21.4 -26.7,-26.7 l -33.8,-15 M 81,180 31.1,202.1 C 11.9,210.6 0,228.9 0,249.9 c 0,21 11.9,39.4 31.1,47.9 L 81,319.9 92.3,290.6 43.8,269.1 C 36,265.6 31.3,258.5 31.3,250 c 0,-8.5 4.7,-15.7 12.5,-19.1 L 92.3,209.4 81,180 m 337.9,-0.1 -11.3,29.3 48.6,21.5 c 7.8,3.5 12.5,10.6 12.5,19.1 0,8.5 -4.7,15.7 -12.5,19.1 l -48.6,21.5 11.3,29.3 50,-22.1 c 19.2,-8.5 31.1,-26.9 31.1,-47.9 0,-21 -11.9,-39.4 -31.1,-47.9 l -50,-21.9 M 167.3,109.8 153,142.2 c -2.1,4.8 -5.9,8.6 -10.7,10.7 l -32.5,14.4 11.3,29.3 33.9,-15 c 11.9,-5.3 21.4,-14.7 26.7,-26.7 l 14.9,-33.7 -29.3,-11.4 m 165.4,0 -29.3,11.3 15,33.8 c 5.3,11.9 14.7,21.4 26.7,26.7 l 33.8,15 11.3,-29.3 -32.4,-14.4 C 353,150.8 349.2,147 347.1,142.2 L 332.7,109.8 M 250,0 C 229,0 210.6,11.9 202.1,31.2 L 180,81.1 209.3,92.4 230.8,43.9 c 3.5,-7.8 10.6,-12.5 19.1,-12.5 8.5,0 15.7,4.7 19.1,12.5 L 290.5,92.4 319.9,81 297.8,31.1 C 289.3,11.9 271,0 250,0"
     class="st0" /><path
     style="fill:#d6d7d8"
     inkscape:connector-curvature="0"
     id="path4233"
     d="m 249.9,362 c -6.5,0 -12.8,1.2 -18.9,3.5 l -34.4,13.3 12.7,28.8 33,-12.8 c 2.4,-0.9 5,-1.4 7.5,-1.4 2.5,0 5.1,0.5 7.5,1.4 l 33.2,12.8 12.7,-28.8 -34.6,-13.4 c -5.9,-2.2 -12.2,-3.4 -18.7,-3.4 m 169,-42.1 -28.8,12.7 19.1,49.6 c 3.5,9 0.1,15.9 -2.1,19.3 -4,5.8 -10.4,9.3 -17.2,9.3 l 0,0 c -2.6,0 -5.2,-0.5 -7.7,-1.5 l -49.5,-19.1 -12.7,28.7 50.9,19.7 c 6.2,2.4 12.6,3.6 19,3.6 l 0,0 c 17.1,0 33.2,-8.6 43.1,-23 9.8,-14.3 11.9,-32 5.5,-48.3 l -19.6,-51 m -337.9,0 -19.7,51 c -6.3,16.4 -4.3,34 5.5,48.3 9.9,14.4 26,23 43.1,23 6.4,0 12.9,-1.2 19,-3.6 l 51,-19.7 -12.7,-28.8 -49.5,19.1 c -2.5,1 -5.1,1.4 -7.6,1.4 -6.8,0 -13.3,-3.4 -17.3,-9.3 C 90.5,398 87.2,391 90.7,382.1 L 109.8,332.5 81,319.9 m 40.1,-123.3 -28.8,12.7 12.8,33.1 c 1.9,4.9 1.9,10.2 0,15.1 l -12.8,33.1 28.8,12.7 13.3,-34.5 c 4.7,-12.2 4.7,-25.6 0,-37.7 l -13.3,-34.5 m 257.7,-0.1 -13.3,34.5 c -4.7,12.2 -4.7,25.6 0,37.7 l 13.3,34.5 28.8,-12.7 -12.8,-33.1 c -1.9,-4.9 -1.9,-10.2 0,-15.1 l 12.8,-33.1 -28.8,-12.7 M 290.6,92.3 257.4,105.1 c -2.4,0.9 -5,1.4 -7.5,1.4 -2.6,0 -5.1,-0.5 -7.5,-1.4 l -33,-12.7 -12.7,28.8 34.4,13.3 c 6,2.3 12.4,3.5 18.8,3.5 6.4,0 12.8,-1.2 18.9,-3.5 L 303.4,121.1 290.6,92.3 M 110,57.8 c -17.1,0 -33.2,8.6 -43.1,23 -9.8,14.3 -11.9,32 -5.5,48.3 L 81,180 109.8,167.3 90.7,117.9 c -3.5,-9 -0.1,-15.9 2.1,-19.2 4,-5.9 10.5,-9.3 17.3,-9.3 2.5,0 5.1,0.5 7.6,1.4 L 167.2,109.9 180,81.1 129.1,61.4 C 122.9,59 116.5,57.8 110,57.8 m 279.9,0 c -6.4,0 -12.9,1.2 -19,3.6 l -51,19.6 12.7,28.8 49.5,-19.1 c 2.5,-1 5.1,-1.4 7.6,-1.4 6.8,0 13.3,3.4 17.3,9.3 2.3,3.3 5.6,10.3 2.1,19.2 l -19.1,49.5 28.8,12.7 19.7,-50.9 c 6.3,-16.4 4.3,-34 -5.5,-48.3 -9.9,-14.5 -26,-23 -43.1,-23"
     class="st1" /><path
     style="fill:#9546be;fill-opacity:1"
     inkscape:connector-curvature="0"
     id="path4235"
     d="m 303.4,378.9 -12.7,28.8 29.3,11.3 12.7,-28.8 -29.3,-11.3 m -106.8,-0.1 -29.3,11.3 12.7,28.8 29.3,-11.3 -12.7,-28.8 m 211,-88.2 -28.8,12.7 11.3,29.3 28.8,-12.7 -11.3,-29.3 M 92.4,290.5 81,319.9 109.8,332.6 121.1,303.3 92.4,290.5 M 109.8,167.2 81,180 l 11.3,29.3 28.8,-12.7 -11.3,-29.4 m 280.3,0 -11.3,29.3 28.8,12.7 11.3,-29.3 -28.8,-12.7 M 180,81.1 167.3,109.9 196.6,121.2 209.3,92.4 180,81.1 M 319.9,81 290.6,92.3 303.3,121.1 332.6,109.8 319.9,81"
     class="st2" /></svg>

<?xml version="1.0" encoding="utf-8"?>
<!-- Generator: Adobe Illustrator 20.0.0, SVG Export Plug-In . SVG Version: 6.00 Build 0)  -->
<svg version="1.1" id="Layer_1" xmlns="http://www.w3.org/2000/svg" xmlns:xlink="http://www.w3.org/1999/xlink" x="0px" y="0px"
	 viewBox="0 0 500 500" style="enable-background:new 0 0 500 500;" xml:space="preserve">
<style type="text/css">
	.st0{fill:#489FD8;}
	.st1{fill:#D6D7D8;}
	.st2{fill:#4691BE;}
</style>
<g>
	<path class="st0" d="M209.3,407.5L180,418.9l22.1,50C210.6,488.1,229,500,250,500s39.4-11.9,47.9-31.1l22.1-49.9l-29.3-11.3
		l-21.5,48.5c-3.5,7.8-10.6,12.5-19.1,12.5c-8.5,0-15.7-4.7-19.1-12.5L209.3,407.5 M378.8,303.3l-33.8,15
		c-11.9,5.3-21.4,14.7-26.7,26.7l-15,33.9l29.3,11.3l14.4-32.5c2.1-4.8,5.9-8.6,10.7-10.7l32.4-14.3L378.8,303.3 M121.1,303.3
		l-11.3,29.3l32.4,14.4c4.8,2.1,8.6,5.9,10.7,10.7l14.4,32.5l29.3-11.3l-15-33.9c-5.3-11.9-14.8-21.4-26.7-26.7L121.1,303.3 M81,180
		l-49.9,22.1C11.9,210.6,0,228.9,0,249.9c0,21,11.9,39.4,31.1,47.9L81,319.9l11.3-29.3l-48.5-21.5c-7.8-3.5-12.5-10.6-12.5-19.1
		c0-8.5,4.7-15.7,12.5-19.1l48.5-21.5L81,180 M418.9,179.9l-11.3,29.3l48.6,21.5c7.8,3.5,12.5,10.6,12.5,19.1
		c0,8.5-4.7,15.7-12.5,19.1l-48.6,21.5l11.3,29.3l50-22.1c19.2-8.5,31.1-26.9,31.1-47.9s-11.9-39.4-31.1-47.9L418.9,179.9
		 M167.3,109.8L153,142.2c-2.1,4.8-5.9,8.6-10.7,10.7l-32.5,14.4l11.3,29.3l33.9-15c11.9-5.3,21.4-14.7,26.7-26.7l14.9-33.7
		L167.3,109.8 M332.7,109.8l-29.3,11.3l15,33.8c5.3,11.9,14.7,21.4,26.7,26.7l33.8,15l11.3-29.3l-32.4-14.4
		c-4.8-2.1-8.6-5.9-10.7-10.7L332.7,109.8 M250,0c-21,0-39.4,11.9-47.9,31.2L180,81.1l29.3,11.3l21.5-48.5
		c3.5-7.8,10.6-12.5,19.1-12.5c8.5,0,15.7,4.7,19.1,12.5l21.5,48.5L319.9,81l-22.1-49.9C289.3,11.9,271,0,250,0"/>
	<path class="st1" d="M249.9,362c-6.5,0-12.8,1.2-18.9,3.5l-34.4,13.3l12.7,28.8l33-12.8c2.4-0.9,5-1.4,7.5-1.4s5.1,0.5,7.5,1.4
		l33.2,12.8l12.7-28.8l-34.6-13.4C262.7,363.2,256.4,362,249.9,362 M418.9,319.9l-28.8,12.7l19.1,49.6c3.5,9,0.1,15.9-2.1,19.3
		c-4,5.8-10.4,9.3-17.2,9.3h0c-2.6,0-5.2-0.5-7.7-1.5l-49.5-19.1L320,418.9l50.9,19.7c6.2,2.4,12.6,3.6,19,3.6h0
		c17.1,0,33.2-8.6,43.1-23c9.8-14.3,11.9-32,5.5-48.3L418.9,319.9 M81,319.9l-19.7,51c-6.3,16.4-4.3,34,5.5,48.3
		c9.9,14.4,26,23,43.1,23c6.4,0,12.9-1.2,19-3.6l51-19.7l-12.7-28.8l-49.5,19.1c-2.5,1-5.1,1.4-7.6,1.4c-6.8,0-13.3-3.4-17.3-9.3
		c-2.3-3.3-5.6-10.3-2.1-19.2l19.1-49.6L81,319.9 M121.1,196.6l-28.8,12.7l12.8,33.1c1.9,4.9,1.9,10.2,0,15.1l-12.8,33.1l28.8,12.7
		l13.3-34.5c4.7-12.2,4.7-25.6,0-37.7L121.1,196.6 M378.8,196.5l-13.3,34.5c-4.7,12.2-4.7,25.6,0,37.7l13.3,34.5l28.8-12.7
		l-12.8-33.1c-1.9-4.9-1.9-10.2,0-15.1l12.8-33.1L378.8,196.5 M290.6,92.3l-33.2,12.8c-2.4,0.9-5,1.4-7.5,1.4
		c-2.6,0-5.1-0.5-7.5-1.4l-33-12.7l-12.7,28.8l34.4,13.3c6,2.3,12.4,3.5,18.8,3.5c6.4,0,12.8-1.2,18.9-3.5l34.6-13.4L290.6,92.3
		 M110,57.8c-17.1,0-33.2,8.6-43.1,23c-9.8,14.3-11.9,32-5.5,48.3L81,180l28.8-12.7l-19.1-49.4c-3.5-9-0.1-15.9,2.1-19.2
		c4-5.9,10.5-9.3,17.3-9.3c2.5,0,5.1,0.5,7.6,1.4l49.5,19.1L180,81.1l-50.9-19.7C122.9,59,116.5,57.8,110,57.8 M389.9,57.8
		c-6.4,0-12.9,1.2-19,3.6L319.9,81l12.7,28.8l49.5-19.1c2.5-1,5.1-1.4,7.6-1.4c6.8,0,13.3,3.4,17.3,9.3c2.3,3.3,5.6,10.3,2.1,19.2
		l-19.1,49.5l28.8,12.7l19.7-50.9c6.3-16.4,4.3-34-5.5-48.3C423.1,66.3,407,57.8,389.9,57.8"/>
	<path class="st2" d="M303.4,378.9l-12.7,28.8l29.3,11.3l12.7-28.8L303.4,378.9 M196.6,378.8l-29.3,11.3l12.7,28.8l29.3-11.3
		L196.6,378.8 M407.6,290.6l-28.8,12.7l11.3,29.3l28.8-12.7L407.6,290.6 M92.4,290.5L81,319.9l28.8,12.7l11.3-29.3L92.4,290.5
		 M109.8,167.2L81,180l11.3,29.3l28.8-12.7L109.8,167.2 M390.1,167.2l-11.3,29.3l28.8,12.7l11.3-29.3L390.1,167.2 M180,81.1
		l-12.7,28.8l29.3,11.3l12.7-28.8L180,81.1 M319.9,81l-29.3,11.3l12.7,28.8l29.3-11.3L319.9,81"/>
</g>
</svg>
